X: 453
T: Dawo ge
%%abc-version 2.0
%%abcx-abcm2ps-target-version 5.9.1 (29 Sep 2008)
%%abc-creator hum2abc beta
%%abcx-conversion-date 2013/10/02 07:52:30
%%abc-edited-by Helmut Schaffrath
%%humdrum-veritas 3595991013
%%humdrum-veritas-data 720614398
%%continueall 1
%%barnumbers 0
L: 1/8
M: 2/4
K: C
d2d e [I:setbarnb 1]| 
A2c2 | 
d e d c | 
d eA2 | 
G2G2 | 
A A c A | 
G2G2 | 
c EG2 | 
d e d c | 
A2c2 | 
A2E2 | 
G2G2 | 
c2c A | 
G2G A | 
D2F A | 
G2z2 |]  



